X:1
T:Come live with me - Webbe
T:#
%%score [ 1 { 2 | 3 } 4 ]
L:1/8
Q:1/4=80
M:4/4
K:F
V:1 treble-8 nm="Alto" snm="A"
V:2 treble-8 nm="Tenor II"
V:3 treble-8 
V:4 bass nm="Bass" snm="B"
V:1
"^Come live with me""^Samuel Webbe\n(1740-1816)""^andante""^Christopher Marlowe" f4 f2 e2 | f4 z4 | %2
w: Come live with|me,|
 a2 gf edcB |[M:4/4][K:treble-8] (A2 G2) z4 | z F f4 e2 | (f/e/f/g/ a)f (ed) c2 | %6
w: come live with me and be my|love, *|And we will|all * * * * the plea\- * sures|
 (c2 =B2)!p! c2 d2 | d2 e2 f2 d2 | e2 e2 f2 e2 | a2 g2 f2 e2 | a2!f! g2 f2 e2 | %11
w: prove, * we will|all the plea- sures|prove, That grove and|val- ley, hill and|field, Or woods and|
 (g/4f/4e/f/g/ a) (g/f/) e2 d2 | e4 z4 | z8 | z c f3 d g2- | ge a3 fbg | e2 cc cccc | %17
w: stee\- * * * * * py * moun- tains|yield;||And twine, and twine|* a thou- sand fra- grant|po- sies; A cap of flow'rs, and|
 (B2 A)c B2 Bd | e3 e f2 b2 | (ag) (fe) f2 f2 |:[M:6/8][K:treble-8]!p! f | f3 e3 | (f3- fe)d | %23
w: ru\- * ral kir- tle, Em-|broi- der'd all with|leaves * of * myr- tle;|A|belt of|straw * * and|
 c3 B3 | (B A2- A2) z | z6 | z6 | z6 |[M:6/8][K:treble-8] z6 | z6 | z6 | z6 | z3 z2!f! f | f3 e3 | %34
w: i- vy|buds, * *||||||||Then|live with|
 (f3- fd)B | A3 G3 | F3- F2 f | f3 Te3 | (f3- fe)d | (c>dc B>A)B | (B A2- A2) z | z6 | z6 | z6 | %44
w: me, * * and|be my|love. * The|she- pherd|swains * * shall|dance * * * * and|sing, * *||||
 z6 | z6 | z6 | z6 | z6 | z6 | z6 | z6 | z3 z2!p! c | c3 (B>AB) | (B3 A2) c | (cd_e- ed) c | %56
w: ||||||||If|joys like * *|these * thy|mind * * * * may|
 d3- d2!f! f | f3 e3 | (f3- fd)B | A3 G3 | F3- F2 :| %61
w: move, * Then|live with|me * * and|be my|love. *|
V:2
 z2 F2 G3 G | F2 c2 z2 c2 | f2 ed cBAG |[M:4/4][K:treble-8] (F2 E2) z4 | z2 z c B3 B | Ac f4 e2 | %6
w: Come live with|me, come, come,|come live with me and be my|love, *|And we will|all the plea- sures|
 (e2 d2)!p! c2 A2 | =B2 c2 c2 B2 | c2 G2 A2 G2 | F2 E2 A2 G2 | F2!f! E2 A2 G2 | A3 A G2 G2 | %12
w: prove, * we will|all the plea- sures|prove, That grove and|val- ley, hill and|field, Or woods and|stee- py moun- tains|
 G2 z c c2 c2 | d2 d2 e2 e2 | f2 f2 z4 | z8 | z cde f2 f2 | _e3 e e2 dd | c3 c c2 d2 | %19
w: yield; And I will|make thee beds of|ro- ses,||A cap of flow'rs, and|ru- ral kir- tle, Em-|broi- der'd all with|
 (cB) (AG) F2 F2 |:[M:6/8][K:treble-8]!p! F | F3 C3 | D3- D2 D | E3 C3 | F3- F2 z | z6 | z6 | z6 | %28
w: leaves * of * myr- tle;|A|belt of|straw * and|i- vy|buds, *||||
[M:6/8][K:treble-8] z3 z2 c | c3 B3 | (B A2) c3 | (cd_e- ed)c | d3- d2!f! d | c3 c3 | c3 (dbg) | %35
w: And|if these|plea\- * sures|may * * * * thee|move, * Then|live with|me, and * *|
 f3 e3 | f3- f2 z | z6 | z6 | z6 | z3 z2 A | B3 c3 | (def- f2) c | (c B2) (A2 G/A/) | %44
w: be my|love. *||||For|thy de-|light * * * each|May * morn\- * *|
 (A G2- G2) z | z6 | z6 | z6 | z6 | z6 | z6 | z6 | z3 z2!p! e | f3 (g>fg) | (g3 f2) f | f3 f3 | %56
w: ing: * *||||||||If|joys like * *|these * thy|mind may|
 f3- f2!f! d | c3 c3 | c3 (dbg) | f3 e3 | f3- f2 :| %61
w: move, * Then|live with|me and * *|be my|love. *|
V:3
 z2 c2 (Bd) (cB) | A4 f2 z2 | z8 |[M:4/4][K:treble-8] z C c4 B2 | B2 A2 (G/F/G/A/ B)G | %5
w: Come live * with *|me, come,||And we will|all the plea\- * * * * sures|
 F3 F F3 ^F | G4!p! A3 A | G3 G F3 F | E2 c2 c3 c | cC z2 c2 c2 | c3!f! C c2 c2 | %11
w: prove, the plea- sures|prove, we will|all the plea- sures|prove, That grove and|val- ley, hill and|field, Or woods and|
 (cd/e/ f) (e/d/) c2 =B2 | c2 z c c2 c2 | c2 _B2 B2 G2 | A2 A2 z4 | z4 z2 B2 | G2 B2 (BA) z A | %17
w: stee\- * * * py * moun- tains|yield; And I will|make thee beds of|ro- ses,|A|cap of flow'rs, * and|
 B2 c2 F2 FF | G2 G2 F2 F2 | (FG) (AB) B2 A2 |:[M:6/8][K:treble-8] z | z6 | z6 | z6 | z3 z2!p! A | %25
w: ru- ral kir- tle, Em-|broi- der'd all with|leaves * of * myr- tle;|||||A|
 B3 c3 | (def- f2) c | B3 A3 |[M:6/8][K:treble-8] (A G2- G2) E | F3 G3 | (G F2) A3 | (ABc- cB)A | %32
w: co- ral|clasp * * * and|am- ber|studs; * * And|if these|plea\- * sures|may * * * * thee|
 B3- B2!f! B | F3 B3 | A3 (G>FG) | (ABc- c2) B | (B3 A2) z | z6 | z6 | z6 | z6 | z6 | z6 | z6 | %44
w: move, * Then|live with|me, and * *|be * * * my|love. *||||||||
 z3 z2 c | c3 (B>AB) | (B3 A2) c | (cd_e- ed)c | (_e d2- d2) z | z6 | z6 | z6 | z3 z2!p! G | %53
w: If|joys like * *|these * thy|mind * * * * may|move, * *||||If|
 F3 c3 | c3- c2 A | (ABc- cB)A | B3- B2!f! B | F3 B3 | A3 (G>FG) | (ABc- c2) B | A3- A2 :| %61
w: joys like|these * thy|mind * * * * may|move, * Then|live with|me and * *|be * * * my|love. *|
V:4
 z2 A,,2 B,,2 C,2 | F,4 z4 | F,2 G,2 A,2 B,2 |[M:4/4] C2 C,2 D,2 E,2 | F,4 z4 | z8 | %6
w: Come live with|me,|come, come live with|me and be my|love,||
 z!p! G,, G,4 F,2 | F,2 E,2 (D,/C,/D,/E,/ F,)D, | C,2 C,2 F,2 C,2 | F,2 C2 F,2 C,2 | %10
w: And we will|all the plea\- * * * * sures|prove, That grove and|val- ley, hill and|
 F,2!f! C2 F,2 C,2 | F,3 F, G,2 G,,2 | C,4 z4 | z8 | z2 z F, B,3 G, | C3 A, DDG,G, | %16
w: field, Or woods and|stee- py moun- tains|yield;||And twine, and|twine a thou- sand fra- grant|
 CC, z C, F,F,F,F, | G,2 A,2 B,B,, z B,, | B,,2 B,,2 A,,2 B,,2 | C,3 C, F,2 F,2 |:[M:6/8] z | z6 | %22
w: po- sies; A cap of flow'rs, and|ru- ral kir- tle, Em-|broi- der'd all with|leaves of myr- tle;|||
 z6 | z6 | z3 z2!p! F, | G,3 A,3 | B,3- B,2 A, | G,3 F,3 |[M:6/8] C,3- C,2 C, | D,3 E,3 | %30
w: ||A|co- ral|clasp * and|am- ber|studs; * And|if these|
 F,3- F,2 F, | F,3 F,3 | B,3- B,2!f! B, | A,3 G,3 | F,3 B,,3 | C,3 C,3 | F,3- F,2 z | z6 | z6 | %39
w: plea\- * sures|may thee|move, * Then|live with|me, and|be my|love. *|||
 z6 | z6 | z6 | z6 | z6 | z6 | z6 | z6 | z6 | z3 z2 B, | B,3 A,3 | (G,A,B,- B,2) A, | G,3 F,3 | %52
w: |||||||||Then|live with|me * * * and|be my|
 C,3- C,2!p! C, | (D,>C,D, E,2) E, | F,3 F,3 | F,3 F,3 | B,,3- B,,2!f! B, | A,3 G,3 | F,3 B,,3 | %59
w: love. * If|joys * * * like|these thy|mind may|move, * Then|live with|me and|
 C,3 C,3 | F,3- F,2 :| %61
w: be my|love. *|

